Modules/BetterCms.Module.Root/Scss/base_64/icons/cp-stick-handle-right.svg

<svg xmlns="http://www.w3.org/2000/svg" width="18" height="10" viewBox="0 0 18 10">
 <path fill="#a0a0a0" fill-rule="evenodd" d="m0 1v-1h18v1h-18m12.719 3h-12.719v-1h12.719v1m2.093 3h-14.812v-1h14.812v1m-6.343 3h-8.469v-1h8.469v1"/>
</svg>

<svg xmlns="http://www.w3.org/2000/svg" preserveAspectRatio="xMidYMid" width="18" height="10" viewBox="0 0 18 10">
  <path fill="#a0a0a0" fill-rule="evenodd" d="M-0.000,1.000 L-0.000,-0.000 L18.000,-0.000 L18.000,1.000 L-0.000,1.000 ZM12.719,4.000 L-0.000,4.000 L-0.000,3.000 L12.719,3.000 L12.719,4.000 ZM14.812,7.000 L-0.000,7.000 L-0.000,6.000 L14.812,6.000 L14.812,7.000 ZM8.469,10.000 L-0.000,10.000 L-0.000,9.000 L8.469,9.000 L8.469,10.000 Z"/>
</svg>
